X:1
T:The Peace of God
T:Charles Brenton Widmeyer
T:The Peace of God
T:Public Domain
T:Public Domain
C:Charles Brenton Widmeyer
Z:Public Domain
%%score ( 1 2 ) 3
L:1/8
M:6/8
K:Eb
V:1 treble 
V:2 treble 
V:3 bass 
V:1
 [GB] | [GB]2 [EG] [EG]2 E | [CG]2 [DF] E2 E | [DF]2 [DF] [DF]2 [EG] | [FA]2 [EG] [DF]2 [AB] | %5
w: 1.~The|peace of God— O|èd peace, That fills|and calms our fears,|That bids our soul’s|
w: 2.~The|peace of God— O|di- vine, That bids|less souls be still,|Till thro’ the clouds|
w: 3.~The|peace of God— O|ful peace, Thro’ all|ing scenes be- low;|In this we’ll rest|
w: 4.~Au-|thor of peace, to|we raise Our prayer|to e’er en- dure|The ills we meet,|
 [Ge]2 [Ge] [Ge]2 [GB] | [Ac]2 [Ae] [GB]2 E | [EG]2 [EG] [EG]2 E | [DG]2 [DF] E2 || %9
w: wild tu- mult cease,|And gives us sun-|thro’ our tears. *||
w: the sun doth shine,|And we be- hold|per- fect will. We’ll|in this won-|
w: till life shall cease,|And Heav’n’s e- ter-|peace we know. *||
w: till all our days|Find rest in Thee,|peace se- cure. *||
"^Refrain" [GB] | [GB]4 [^F=A][GB] | [Ac]>[GB][^F=A] [GB]2 E | [EG]4 [DF][EG] | %13
w: ||||
w: ful|peace, So blest|and so filled with God’s|Till our souls|
w: ||||
w: ||||
 [EB]>[DA][EG] [DF]2 [GB]/[GB]/ | [Ge]3- [Ge]2 [Ge] | [Af]>[Ae][Ac] [Ae]2 E/F/ | %16
w: |||
w: find hap- py re- lease, And|we * reach|the man- sions a- bove. *|
w: |||
w: |||
 (z2 E/E/ [EG]2) E | [DG]>[DG][DF] E2 |] %18
w: ||
w: ||
w: ||
w: ||
V:2
 x | x5 E | x3 E2 E | x6 | x6 | x6 | x5 E | x5 E | x3 E2 || x | x6 | x5 E | x6 | x6 | x6 | x6 | %16
w: |bless-|the heart||||light||||||||||
w: |peace|our rest-||||His|rest|der-|||love,|||||
w: |rest-|life’s chang-||||nal||||||||||
w: |Thee|for strength,||||Thy||||||||||
 (G3- E) x2 | x3 E2 |] %18
w: ||
w: ||
w: ||
w: ||
V:3
 [E,E] | [E,E]2 [E,B,] [E,B,]2 [E,G,] | [B,,B,]2 [B,,A,] [E,G,]2 [E,G,] | %3
 [B,,B,]2 [B,,B,] [B,,B,]2 [B,,B,] | [B,,B,]2 [B,,B,] [B,,B,]2 [D,B,] | %5
 [E,B,]2 [E,B,] [E,B,]2 [E,E] | [A,E]2 [A,C] [E,E]2 [E,G,] | [C,G,]2 [C,G,] [C,G,]2 [C,G,] | %8
 [B,,B,]2 [B,,A,] [E,G,]2 || z | z2 [E,E] [E,E][E,E][E,E] | [E,E]>[E,E][E,E] [E,E]2 z | %12
 z2 [E,B,] [E,B,][A,B,][G,B,] | [G,B,]>[F,B,][E,B,] [B,,B,]2 z | z2 [E,B,]/[E,B,]/ [E,B,]2 [E,_D] | %15
 [A,C]>[A,C][A,E] [A,C]2 z | z2 [C,G,]/[C,G,]/ [C,G,]2 [C,G,] | [B,,B,]>[B,,B,][B,,A,] [E,G,]2 |] %18

